X:121
T:Reels simple chords 369
M:3/4
L:1/8
K:Em
FG [A2D,2F,2A,2] FA | d2 ^cd [B2D,2F,2A,2] | A2 A4 | [A2D,2F,2A,2] FA d^c | BA [G2E,2G,2B,2] E2 |
E4 [G2E,2G,2B,2] | FG ^c2 c2 | [G2E,2G,2B,2] FG ^c4 | [G2E,2G,2B,2] EG |
^cB AG [B2D,2F,2A,2] | A2 A4 | [A2D,2F,2A,2] FA d2 | ^cd [B2D,2F,2A,2] A2 |
A4 [d2D,2F,2A,2] | ^cd e2 d2 | [d2G,2B,2D2] B2 B4 | [e2G,2B,2D2] ^de |
=f2 ef [^f2D,2F,2A,2] | d2 A2 ^GA | [B2E,2G,2B,2] ^AB ^c2 | A2 [d2D,2F,2A,2] c2 |
B2 A2 [d4G,4B,4D4] | g2>f2 | [e2G,2B,2D2] d2 d4 | [d2G,2B,2D2] ^cd |
ed cB [c2A,2C2E2] | A2 A4 | [c2A,2C2E2] Bc A2 | A2 [A2A,2C2E2] ^GA |
F4 [c2A,2C2E2] | Bc fe dc | [e2G,2B,2D2] d2 d2 | Bc [d2G,2B,2D2] Bd |
g2>f2 [e2G,2B,2D2] | d2 d4 | [d2G,2B,2D2] Bd g2 | g2 [g2C,2E,2G,2] e2 |
e4 [A4C,4E,4G,4] | ^A4 | [B2G,2B,2D2] G2 d2 | ^cd [e2A,2=C2E2] ^de |
f2 d4< [g4G,4B,4D4] |


